static/assets/img/icons/theme/text/text.svg

<svg height="24" viewBox="0 0 24 24" width="24" xmlns="http://www.w3.org/2000/svg"><g fill="none" fill-rule="evenodd"><path d="m0 0h24v24h-24z" opacity="0"/><path d="m13.5 8v10c0 .5522847-.4477153 1-1 1h-1c-.5522847 0-1-.4477153-1-1v-10h-3.5c-.55228475 0-1-.44771525-1-1v-1c0-.55228475.44771525-1 1-1h10c.5522847 0 1 .44771525 1 1v1c0 .55228475-.4477153 1-1 1z" fill="#000"/></g></svg>

<svg width="24px" height="24px" viewBox="0 0 24 24" version="1.1" xmlns="http://www.w3.org/2000/svg" xmlns:xlink="http://www.w3.org/1999/xlink">
    <title>Icon For Text</title>
    <g stroke="none" stroke-width="1" fill="none" fill-rule="evenodd">
        <rect opacity="0" x="0" y="0" width="24" height="24"></rect>
        <path d="M13.5,8 L13.5,18 C13.5,18.5522847 13.0522847,19 12.5,19 L11.5,19 C10.9477153,19 10.5,18.5522847 10.5,18 L10.5,8 L7,8 C6.44771525,8 6,7.55228475 6,7 L6,6 C6,5.44771525 6.44771525,5 7,5 L17,5 C17.5522847,5 18,5.44771525 18,6 L18,7 C18,7.55228475 17.5522847,8 17,8 L13.5,8 Z" fill="#000000"></path>
    </g>
</svg>
